!!!SOCIAL_FUNCTION:	songs connected with legends of manabus
!!!PDT:	1932
!!!OTL: No_80_Manabus_and_the_Stone_(b).krn
!!!REG: Wisconsin
!!!LANG: Non-Tone
!!!LING_GROUP: Algonquin
**kern
*staff1
=1-
*clefF4
*k[f#c#g#d#]
*M2/4
4r
8r
16r
16G#\
=2
8.G#\L
16F#\Jk
8.E\L
16F#\Jk
=3
2E\
=4
4E\
8.E/L
16C#/Jk
=5
2BB/
=6
4BB/
8.BB/L
16AA/Jk
=7
2AA/
=8
4AA/
4AA/
=9||
*M3/4
4AA/
4AA/
8.r
16F#\
=10||
*M2/4
8.E\L
16E\Jk
8.F#\L
16F#\Jk
=11
2E\
=12
4E\
4E\
=13
2C#/
=14
4C#/
8.C#/L
16BB/Jk
=15
2BB/
=16||
*M3/4
4BB/
4BB/
8.r
16BB/
=17||
*M2/4
8.GG#/L
16BB/Jk
8.BB/L
16C#/Jk
=18
2BB/
=19
4BB/
4BB/
=20
4BB/
4GG#/
=21
2r
=22
4r
8r
16r
16BB/
=23
8BB/L
8F#/J
8F#\L
8F#\J
=24
8F#\L
8F#\J
8.F#\L
16F#\Jk
=25
2F#\
=26
4F#\
8.F#\L
16D#\Jk
=27
2C#/
=28||
*M3/4
4C#/
8C#/
16r
16F#\
8.F#\L
16F#\Jk
=29||
*M2/4
2F#\
=30
4F#\
8.F#\L
16E\Jk
=31
2E\
=32
4E\
8.E/L
16C#/Jk
=33
2BB/
=34||
*M3/4
4BB/
4BB/
8.r
16F#\
=35||
*M2/4
8.E\L
16E\Jk
8.F#\L
16F#\Jk
=36
2E\
=37
4E\
4E\
=38
2C#/
=39
4C#/
8.C#/L
16BB/Jk
=40
2BB/
=41||
*M3/4
4BB/
4BB/
8.r
16BB/
=42||
*M2/4
8.GG#/L
16BB/Jk
8.BB/L
16C#/Jk
=43
2BB/
=44
4BB/
4BB/
=45
4BB/
4GG#/
==
*-
